!!!OTL: Das faule Gretchen (225c), S. 486
!!!id: T0410
**kern
*clefG2
*k[f#]
*G:
{8d
=1
8g
8g
8g
8g
=2
8g
8g
8g}
=3
{8b
=4
8a
8g
8f#
8a
=5
4d}
=6
{4dd
=7
8b
8b
8b
8b
=8
8b
8dd
8dd}
=9
{16b
16dd
=10
8dd
8dd
8dd
8dd
=11
4g}
=12
{4a
=13
8b
8b
8f#
8f#
=14
4g}
8r
==
*-
!!!minrhy: 16
!!!meters: 2/4 ]  ZZ[5
!!!cut: Das faule Gretchen (225c), S. 486
!!!reg: Luxemburg
!!!trd: Singendes Volk, Esch-Alzette, 1937 posth.
!!!rhy1: X_  X_X_X_X_  X_X_X_   (x2)
!!!rhy2: X_  X_X_X_X_  X__
!!!key: T0410  16  G 2/4 ]  ZZ[5
!!!mod: PENTATONIK ]  AMBITUS[8
!!!kad: 1-5511
!!!akz: 11_2-5_33_51_31_
!!!fot: 'a__b__as"c__d__
!!!for: 'a__aw_av_aw_aw_
!!!fok: '/__\__V__^d_\__
!! PHRAS[AUFTAKTIG]
!!!fkt: Berufslied
!!!bem1: Rodershausen, ? M. Dirkes, 1930,
!!!bem2: mitgeteilt, hhh Josef Bour (Lehrer)
!!!bem3: (226)- Consdorf, Liederheft, 1848-51
!! THILL; Mathias
!! PR[36] 2K[2] 2G[9] 3K[6] 3G[2] 4A[11] 4Ü[0] 5A[4] 6K[0] 6G[0]
!! 7K[0] 7G[0] 8A[0] MEHR[0] SI[34] ABS[113] SR[11] SP[23]
!! ST[0] 2k[2] 2g[14] 3k[0] 3g[1] 4d[4] 4ü[2] 5d[2] 6k[5] 6g[1]
!! 7k[0] 7g[0] 8d[0] mehr[0] si[30] dm[+4] sr[16] sp[14]
!! 1F[38] 2F[50] 3F[2] 4F[0] LF[0] 2P[2] 3P[8] 4P[0] TRI[0] DF[5] AB[121]
!! TF[0] U3K[0] U3[0] U4[0] U4Ü[0] U5[4] U6K[0] U6[0] U7K[0] U7[2]
!! N1[19] N2K[0] N2[15] N3K[0] N3[31] N4[4] N4Ü[0] N5[19] N6K[0] N6[0]
!!!n7k: 0] N7[0] O1[7] O2K[0] O2[0] O3K[0] O3[0] HÖ[0
